!!!!SEGMENT: pl-wtm--r-759-m--005_moniuszko-stanislaw--studia-berlinskie-iii-gloria.krn
!!!cenid: 18xx:2881
!!!COM: Moniuszko, Stanisław
!!!COM-rismID:
!!!CDT: 1819/05/05-1872/06/04
!!!CNT: Polish
!!!GTL: Studia berlińskie III
!!!OTL: Gloria
!!!PDT:
!!!AGN:
!!!SMS-siglum: PL-Wtm
!!!SMS-shelfmark: R 759/M
!!!SMS-shelfwork: 005 G
!!!SMS-variant:
!!!SMS-altvar:
!!!NIFC-rismSourceID: 1001097416
!!!NIFC-islandoraID:
!!!URL-pdf-islandora:
!!!URL-scan:
!!!ONB-nifc: UWAGA: od skanu 0063
!!!AIN: 1 alto 1 empty 1 soprn 1 tenor
!!!key:
**kern	**text	**dynam	**kern	**text	**dynam	**kern	**text	**dynam	**kern	**text	**dynam
*part4	*part4	*part4	*part3	*part3	*part3	*part2	*part2	*part2	*part1	*part1	*part1
*staff4	*staff4	*	*staff3	*staff3	*	*staff2	*staff2	*	*staff1	*staff1	*
*Iempty	*	*	*Itenor	*	*	*Ialto	*	*	*Isoprn	*	*
*I"[Basso]	*	*	*I"[Tenore]	*	*	*I"[Alto]	*	*	*I"[Soprano]	*	*
*I'[B]	*	*	*I'[T]	*	*	*I'[A]	*	*	*I'[S]	*	*
*clefF4	*	*	*clefC4	*	*	*clefC3	*	*	*clefC1	*	*
*k[]	*	*	*k[]	*	*	*k[]	*	*	*k[]	*	*
*C:	*	*	*C:	*	*	*C:	*	*	*C:	*	*
*M4/4	*	*	*M4/4	*	*	*M4/4	*	*	*M4/4	*	*
*met(c)	*	*	*met(c)	*	*	*met(c)	*	*	*met(c)	*	*
=1	=1	=1	=1	=1	=1	=1	=1	=1	=1	=1	=1
!!!OMD: Allegro Moderato.
*	*	*	*2\right	*	*	*	*	*	*	*	*
!	!	!	!	!	!LO:DY:a:rj	!	!	!	!	!	!
1r	.	.	(>2c\	Glo-	f	1r	.	.	1r	.	.
.	.	.	4B\)	.	.	.	.	.	.	.	.
.	.	.	8A\L	-ri-	.	.	.	.	.	.	.
.	.	.	8G\J	-a	.	.	.	.	.	.	.
=2	=2	=2	=2	=2	=2	=2	=2	=2	=2	=2	=2
*2\right	*	*	*	*	*	*	*	*	*	*	*
!	!	!LO:DY:b:rj	!	!	!	!	!	!	!	!	!
(>2c\	Glo-	f	(>2e\	in	.	1r	.	.	1r	.	.
4B\)	.	.	4d\)	.	.	.	.	.	.	.	.
8A\L	-ri-	.	4f\	ex-	.	.	.	.	.	.	.
!	!	!	!	!	!	!	!	!	!	!	!LO:DY:a
8G\J	-a	.	.	.	.	.	.	.	.	.	f
=3	=3	=3	=3	=3	=3	=3	=3	=3	=3	=3	=3
*	*	*	*	*	*	*	*	*	*2\right	*	*
4c\	in	.	(>4e\	-cel-	.	1r	.	.	(>2cc\	Glo-	.
4E\	ex-	.	4g\)	.	.	.	.	.	.	.	.
4F\	-cel-	.	2d\	-sis	.	.	.	.	4b\)	.	.
4F\	-sis	.	.	.	.	.	.	.	8a\L	-ri-	.
.	.	.	.	.	.	.	.	.	8g\J	-a	.
=4	=4	=4	=4	=4	=4	=4	=4	=4	=4	=4	=4
2E\	De-	.	4c\	in	.	1r	.	.	(>2gg\	Glo-	.
.	.	.	4G/	ex-	.	.	.	.	.	.	.
2D\	-o	.	4A/	-cel-	.	.	.	.	2ff\	.	.
.	.	.	4B/	-sis	.	.	.	.	.	.	.
=5	=5	=5	=5	=5	=5	=5	=5	=5	=5	=5	=5
!	!	!LO:DY:b:rj	!	!	!LO:DY:b:rj	!	!	!LO:DY:b:rj	!	!	!LO:DY:a
4.C/	Glo-	ff	2.c\	De-	ff	4.g\	Glo-	ff	4.ee\)	.	ff
8C/	-ri-	.	.	.	.	8g\	ri-	.	8ee\	ri-	.
4C/	-a!	.	.	.	.	4g\	-a!	.	4ee\	-a!	.
4r	.	.	4c\	-o	.	4r	.	.	4r	.	.
=6	=6	=6	=6	=6	=6	=6	=6	=6	=6	=6	=6
4.A/	Glo-	.	2c\	Glo-	.	4.a\	Glo-	.	4.ee\	Glo-	.
8AA/	-ri-	.	.	.	.	8a\	-ri-	.	8ee\	-ri-	.
4AA/	-a!	.	4c\	-ri-	.	4a\	-a!	.	4ee\	-a!	.
4r	.	.	4c\	-a!	.	4r	.	.	4r	.	.
=7	=7	=7	=7	=7	=7	=7	=7	=7	=7	=7	=7
4D\	in	.	4A\	in	.	4f\	in	.	4ff\	in	.
4E\	ex-	.	4c#X\	ex-	.	4g\	ex-	.	4ee\	ex-	.
4F\	-cel-	.	4d\	-cel-	.	4a\	-cel-	.	4dd\	-cel-	.
4F#X\	-sis	.	4d#X\	-sis	.	4a\	-sis	.	4a\	-sis	.
!!LO:LB:g=original
=8	=8	=8	=8	=8	=8	=8	=8	=8	=8	=8	=8
*	*	*	*	*	*	*2\right	*	*	*	*	*
(>[<1G	De-	.	(>2e\	De-	.	2g\	De-	.	2cc\	De-	.
.	.	.	4d\)	.	.	4f\	-o!	.	2b\	-o	.
.	.	.	4d\	-o	.	4r	.	.	.	.	.
=9	=9	=9	=9	=9	=9	=9	=9	=9	=9	=9	=9
2G\]	.	.	(>2c\	in	.	1r	.	.	(>4a\	in	.
.	.	.	.	.	.	.	.	.	4ee\	.	.
4F#X\)	.	.	4d\)	.	.	.	.	.	4dd\)	.	.
8E\L	-o!	.	8e\L	ex-	.	.	.	.	4cc\	ex-	.
8D\J	.	.	8f#X\J	.	.	.	.	.	.	.	.
=10	=10	=10	=10	=10	=10	=10	=10	=10	=10	=10	=10
4.G\	Glo-	.	2g\	-cel-	.	(>2g\	Glo-	.	(>4b\	-cel-	.
.	.	.	.	.	.	.	.	.	4cc\	.	.
8GG/	-ri-	.	.	.	.	.	.	.	.	.	.
4GG/	-a!	.	2B\	-sis	.	4f\)	.	.	4dd\)	.	.
4r	.	.	.	.	.	8e\L	-ri-	.	4g\	-sis	.
.	.	.	.	.	.	8d\J	-a!	.	.	.	.
=11	=11	=11	=11	=11	=11	=11	=11	=11	=11	=11	=11
1r	.	.	2.e\	De-	.	2c\	Glo-	.	(>4cc\	De-	.
.	.	.	.	.	.	.	.	.	4dd\	.	.
.	.	.	.	.	.	4e\	-ri-	.	4cc\)	.	.
.	.	.	8d\L	-o!	.	4g\	-a!	.	4b-X\	-o	.
.	.	.	8c\J	.	.	.	.	.	.	.	.
=12	=12	=12	=12	=12	=12	=12	=12	=12	=12	=12	=12
4.F\	Glo-	.	4.c\	Glo-	.	2f\	Glo-	.	4.a\	Glo-	.
8F\	-ri-	.	8c\	-ri-	.	.	.	.	8a\	-ri-	.
4F\	-a!	.	4c\	-a!	.	4f\	-ri-	.	4a\	-a!	.
4r	.	.	4r	.	.	4f\	-a!	.	4r	.	.
=13	=13	=13	=13	=13	=13	=13	=13	=13	=13	=13	=13
4.D\	Glo-	.	4.d\	Glo-	.	2a\	Glo-	.	4.ff\	Glo-	.
8D\	-ri-	.	8d\	-ri-	.	.	.	.	8ff\	-ri-	.
4D\	-a!	.	4d\	-a!	.	4a\	-ri-	.	4ff\	-a!	.
4r	.	.	4r	.	.	4a\	-a	.	4r	.	.
=14	=14	=14	=14	=14	=14	=14	=14	=14	=14	=14	=14
2BB-X/	in	.	(>1d	in	.	[>1g	in	.	2.ff\	in	.
2BBn/	ex-	.	.	.	.	.	.	.	.	.	.
.	.	.	.	.	.	.	.	.	4ff\	ex-	.
=15	=15	=15	=15	=15	=15	=15	=15	=15	=15	=15	=15
2C/	-cel-	.	2c\)	.	.	2.g\]	.	.	[>1ee	-cel-	.
2C#X/	-sis	.	2B\	ex-	.	.	.	.	.	.	.
.	.	.	.	.	.	4g\	ex-	.	.	.	.
!!LO:LB:g=original
=16	=16	=16	=16	=16	=16	=16	=16	=16	=16	=16	=16
2D\	in	.	2.A\	-cel-	.	2f\	-cel-	.	2ee\]	.	.
2E\	ex-	.	.	.	.	2g\	-sis	.	2ee\	-sis	.
.	.	.	4A\	-sis	.	.	.	.	.	.	.
=17	=17	=17	=17	=17	=17	=17	=17	=17	=17	=17	=17
2F\	-cel-	.	1d	De-	.	2a\	De-	.	(>2.dd\	De-	.
2F#X\	-sis	.	.	.	.	4d\	-o!	.	.	.	.
.	.	.	.	.	.	4r	.	.	4cc\)	.	.
=18	=18	=18	=18	=18	=18	=18	=18	=18	=18	=18	=18
*	*	*	*	*	*	*2\left	*	*	*2\left	*	*
2G\	De-	.	2d\	-o!	.	2g\	et	.	2b\	-o!	.
*	*	*	*	*	*	*2\right	*	*	*	*	*
!	!	!	!	!	!LO:DY:a:rj	!	!	!	!	!	!
4GG/	-o!	.	2r	.	p	2g\	in	.	2r	.	.
4r	.	.	.	.	.	.	.	.	.	.	.
=19	=19	=19	=19	=19	=19	=19	=19	=19	=19	=19	=19
1r	.	.	1r	.	.	2g\	ter-	.	1r	.	.
.	.	.	.	.	.	2g\	-ra	.	.	.	.
=20	=20	=20	=20	=20	=20	=20	=20	=20	=20	=20	=20
*	*	*	*	*	*	*	*	*	*2\right	*	*
!	!	!	!	!	!LO:DY:a:rj	!	!	!LO:DY:b:rj	!	!	!LO:DY:a
1r	.	.	2e-X\	et	p	[>1g	pax	p	2b-X\	et	p
.	.	.	2e-\	in	.	.	.	.	2b-\	in	.
=21	=21	=21	=21	=21	=21	=21	=21	=21	=21	=21	=21
1r	.	.	2e-X\	ter-	.	2g\_>	.	.	2b-X\	ter-	.
.	.	.	2e-\	-ra	.	2g\]	ho-	.	2b-\	-ra	.
=22	=22	=22	=22	=22	=22	=22	=22	=22	=22	=22	=22
!	!	!LO:DY:b:rj	!	!	!	!	!	!	!	!	!
2A-X\	et	p	[>1e-X	pax	.	2g\	-mi-	.	[>1cc	pax	.
2A-\	in	.	.	.	.	2g\	-ni-	.	.	.	.
=23	=23	=23	=23	=23	=23	=23	=23	=23	=23	=23	=23
2A-y\	ter-	.	2e-X\]	.	.	2f\	-bus	.	2cc\]	.	.
2A-\	-ra	.	2e-\	ho-	.	[>2f\	bo-	.	2cc\	ho-	.
=24	=24	=24	=24	=24	=24	=24	=24	=24	=24	=24	=24
(>1An	pax	.	2e-X\	-mi-	.	1f_>	.	.	2.cc\	-mi-	.
.	.	.	2e-\	-ni-	.	.	.	.	.	.	.
.	.	.	.	.	.	.	.	.	4cc\	-ni-	.
=25	=25	=25	=25	=25	=25	=25	=25	=25	=25	=25	=25
2G\)	.	.	1e-X	-bus	.	1f]	.	.	(>2b-X\	-bus	.
2A\	ho-	.	.	.	.	.	.	.	2cc\)	.	.
!!LO:PB:g=original
=26	=26	=26	=26	=26	=26	=26	=26	=26	=26	=26	=26
2B\	-mi-	.	2d\	bo-	.	2f\	.	.	1dd	bo-	.
4B\	-ni-	.	[>2d\	-nae	.	[>2f\	nae	.	.	.	.
4B\	-bus	.	.	.	.	.	.	.	.	.	.
=27	=27	=27	=27	=27	=27	=27	=27	=27	=27	=27	=27
2A\	bo-	.	2d\]	.	.	2f\]	.	.	1dd	-nae	.
2A\	-nae	.	[>2d\	vo-	.	[>2f\	vo-	.	.	.	.
=28	=28	=28	=28	=28	=28	=28	=28	=28	=28	=28	=28
2G#X\	vo-	.	2d\]	.	.	2f\]	.	.	2dd\	vo-	.
2G#\	-lun-	.	2d\	-lun-	.	[>2f\	-lun-	.	2dd\	-lun-	.
=29	=29	=29	=29	=29	=29	=29	=29	=29	=29	=29	=29
!	!	!	!	!	!	!	!	!	!	!	!LO:DY:a
2.Gn\	-ta-	.	(>2B\	-ta-	.	4f\]	.	.	(>2dd\	-ta-	<
.	.	.	.	.	.	(>4f\	-ta-	.	.	.	.
.	.	.	4c\)	.	.	4e\)	.	.	4ee\)	.	.
4G\	-tis	.	4d\	-tis	.	4d\	-tis	.	4ff\	-tis.	[[
=30	=30	=30	=30	=30	=30	=30	=30	=30	=30	=30	=30
!	!	!	!	!	!	!	!	!	!	!	!LO:DY:a
4.C/	Glo-	.	4.c\	Glo-	.	4.e\	Glo-	.	4.ee\	Glo-	f
8C/	-ri-	.	8c\	-ri-	.	8g\	-ri-	.	8ee\	-ri-	.
(<4C/	-a	.	(>4c\	-a	.	4g\	-a!	.	4ee\	-a!	.
4C#X/)	.	.	4B-X\)	.	.	[>4g\	in	.	(>4ee\	Glo-	.
=31	=31	=31	=31	=31	=31	=31	=31	=31	=31	=31	=31
4D\	in	.	(>2Bn\	in	.	2.g\]	.	.	4gg\)	.	.
4D\	ex-	.	.	.	.	.	.	.	8ff\	-ri-	.
.	.	.	.	.	.	.	.	.	8ff\	-a	.
4E\	-cel-	.	4c\)	.	.	.	.	.	4ee\	in	.
4F\	-sis	.	4d\	ex-	.	4a\	ex-	.	4dd\	ex-	.
=32	=32	=32	=32	=32	=32	=32	=32	=32	=32	=32	=32
!	!	!	!	!	!	!	!	!	!	!	!LO:HP:a
[>1G	De-	.	(>4e\	-cel-	.	(>4g\	-cel-	.	[1cc	-cel-	>]
.	.	.	4c\)	.	.	4e\)	.	.	.	.	.
.	.	.	(>4f\	-sis	.	(>4a\	-sis	.	.	.	.
.	.	.	4e\)	.	.	4g\)	.	.	.	.	.
=33	=33	=33	=33	=33	=33	=33	=33	=33	=33	=33	=33
!	!	!	!	!	!	!	!	!	!	!	!LO:DY:a
1G]	.	.	1d	De-	.	1f	De-	.	4cc\]	.	p
.	.	.	.	.	.	.	.	.	4b\	-sis	.
.	.	.	.	.	.	.	.	.	(>4a\	De-	.
.	.	.	.	.	.	.	.	.	4b\)	.	.
=34	=34	=34	=34	=34	=34	=34	=34	=34	=34	=34	=34
!	!	!	!	!	!	!	!	!	!	!	!LO:DY:a
4C/	-o!	.	4c\	-o!	.	4e\	-o!	.	4cc\	-o!	f
4r	.	.	8c\	Glo-	.	4r	.	.	8cc\	Glo-	.
.	.	.	8c\	-ri-	.	.	.	.	8cc\	-ri-	.
4r	.	.	4G/	-a!	.	4r	.	.	4g\	-a!	.
!	!	!	!	!	!	!	!	!LO:DY:b:rj	!	!	!
8c\	Glo-	.	8c\	Glo-	.	8g\	Glo-	f	8ee\	Glo-	.
8c\	-ri-	.	8c\	-ri-	.	8g\	-ri-	.	8ee\	-ri-	.
=35	=35	=35	=35	=35	=35	=35	=35	=35	=35	=35	=35
4G\	-a	.	4B\	-a!	.	4g\	-a!	.	4dd\	-a!	.
4A\	Glo-	.	4c\	Glo-	.	4f\	Glo-	.	4ff\	Glo-	.
4G\	ri-	.	4c\	-ri-	.	4g\	-ri-	.	4ee\	-ri-	.
4F\	-a!	.	4c\	-a	.	4a\	-a!	.	4dd\	-a!	.
!!LO:LB:g=original
=36	=36	=36	=36	=36	=36	=36	=36	=36	=36	=36	=36
(>1E	Glo-	.	(>2c\	Glo-	.	(>(>1a#X	Glo-	.	[>1gg	Glo-	.
.	.	.	2c#X\	.	.	.	.	.	.	.	.
=37	=37	=37	=37	=37	=37	=37	=37	=37	=37	=37	=37
4F\	.	.	2d\)	.	.	4b\)	.	.	(>4gg\]	.	.
4D\)	.	.	.	.	.	4an\)	.	.	4ff\)	.	.
4E\	-ri-	.	4c#X\	-ri-	.	4g\	-ri-	.	4ee\	-ri-	.
4F\	-a	.	4d\	-a	.	4f\	-a	.	4dd\	-a	.
=38	=38	=38	=38	=38	=38	=38	=38	=38	=38	=38	=38
1G	Glo-	.	2c\	in	.	2e\	in	.	2cc\	in	.
.	.	.	2f\	ex-	.	2a\	ex-	.	2cc\	ex-	.
=39	=39	=39	=39	=39	=39	=39	=39	=39	=39	=39	=39
2G\	-ri-	.	2e\	-cel-	.	2g\	-cel-	.	2cc\	-cel-	.
2G\	-a	.	2d#X\	-sis	.	2f#X\	-sis	.	2cc\	-sis	.
=40	=40	=40	=40	=40	=40	=40	=40	=40	=40	=40	=40
2G\	in	.	2dn\	in	.	2fn\	in	.	(>2cc\	De-	.
2G\	ex-	.	2d\	ex-	.	2f\	ex-	.	2b\	.	.
=41	=41	=41	=41	=41	=41	=41	=41	=41	=41	=41	=41
2G\	-cel-	.	2d\	-cel-	.	2fn\	-cel-	.	2a\	.	.
2G\	-sis	.	2d\	-sis	.	2f\	-sis	.	2b\)	.	.
=42	=42	=42	=42	=42	=42	=42	=42	=42	=42	=42	=42
!	!	!LO:DY:b:rj	!	!	!LO:DY:b:rj	!	!	!LO:DY:b	!	!	!
2.C/	De-	p	2.c\	De-	p	2.e\	D-	p	1cc	-o!	p
!	!	!LO:HP:a	!	!	!LO:HPY:a	!	!	!LO:HP:a	!	!	!
4C/	-o!	<	4c\	-o	<	4e\	-o!	<	.	.	.
=43	=43	=43	=43	=43	=43	=43	=43	=43	=43	=43	=43
!	!	!	!	!	!	!	!	!	!	!	!LO:HP:a
2C/	in	.	2G/	in	.	2e\	in	.	2cc\	in	<
2C/	ex-	[	2G/	ex-	[	2e\	ex-	[	2cc\	ex-	[[
=44	=44	=44	=44	=44	=44	=44	=44	=44	=44	=44	=44
!	!	!LO:HP:b	!	!	!LO:HP:b	!	!	!LO:HP:b	!	!	!LO:DY:b
!	!	!LO:DY:b:rj	!	!	!LO:DY:b	!	!	!LO:DY:b	!	!	!LO:HP:b
1BB-X	-cel-	f > ]]	1B	-cel-	f > ]]	1f	-cel-	f > ]]	[>1dd	-cel-	f > ]]
=45	=45	=45	=45	=45	=45	=45	=45	=45	=45	=45	=45
!	!	!LO:DY:b	!	!	!LO:DY:b	!	!	!LO:DY:b	!	!	!LO:DY:b
1GG	-sis	p	1Bn	-sis	p	1f	-sis	p	2.dd\]	.	p
.	.	.	.	.	.	.	.	.	4g\	-sis	.
=46	=46	=46	=46	=46	=46	=46	=46	=46	=46	=46	=46
[>1C	De-	.	[>1c	De-	.	[>1e	De-	.	[>1g	De-	.
=47	=47	=47	=47	=47	=47	=47	=47	=47	=47	=47	=47
1C]	.	.	1c]	.	.	1e]	.	.	1g]	.	.
=48	=48	=48	=48	=48	=48	=48	=48	=48	=48	=48	=48
1C;>	-o!	.	1G;>	-o!	.	1c;>	-o!	.	1e;>	-o!	.
!LO:TX:b:i:t=Bergen.\n1840. 3ty Mai.	!	!	!	!	!	!	!	!	!	!	!
==	==	==	==	==	==	==	==	==	==	==	==
*-	*-	*-	*-	*-	*-	*-	*-	*-	*-	*-	*-
!!!system-decoration: [(s1,s2,s3,s4)]
!!!RDF**kern: > = above
!!!RDF**kern: < = below
!!!ENC: Tomasz Grochalski
!!!END: 2021-08-06
!!!EED: Antoni Szymański
!!!EEV: 2021-09-05
